assets/svg/icon-ui-tools-blue.svg

<?xml version="1.0" encoding="UTF-8" standalone="no"?>
<svg width="29px" height="30px" viewBox="0 0 29 30" version="1.1" xmlns="http://www.w3.org/2000/svg" xmlns:xlink="http://www.w3.org/1999/xlink">
    <!-- Generator: Sketch 3.8.3 (29802) - http://www.bohemiancoding.com/sketch -->
    <title>blue/icon-ui-tools-blue</title>
    <desc>Created with Sketch.</desc>
    <defs></defs>
    <g id="blue,-base" stroke="none" stroke-width="1" fill="none" fill-rule="evenodd">
        <g id="icons,-utility-(blue)" transform="translate(-809.000000, -502.000000)" fill="#1055FF">
            <g id="blue/icon-ui-tools-blue" transform="translate(809.000000, 502.000000)">
                <g id="x">
                    <g id="PaaS">
                        <g id="products">
                            <g id="Products">
                                <g id="BaaS">
                                    <g id="Description">
                                        <g id="Backend">
                                            <g id="Classes">
                                                <path d="M16.8661826,21.0492439 L21.3848169,25.5678782 L23.7810624,28.7856936 L25.0476493,29.1280143 L28.6077856,25.5678782 L28.2654647,24.2670592 L25.0476493,21.9050458 L20.2893905,17.1467868 L16.9346468,20.5015305 C16.9346468,20.7069231 16.9004147,20.8780834 16.8661826,21.0492439 L16.8661826,21.0492439 L16.8661826,21.0492439 Z M24.7053286,23.7193461 C25.5611305,23.7193461 26.21154,24.3697555 26.21154,25.2255575 C26.21154,26.0471273 25.5611305,26.6975368 24.7053286,26.6975368 C23.8837587,26.6975368 23.2333493,26.0471273 23.2333493,25.2255575 C23.2333493,24.3697555 23.8837587,23.7193461 24.7053286,23.7193461 L24.7053286,23.7193461 L24.7053286,23.7193461 Z M14.9149541,11.7723507 L12.2790841,9.10224847 C12.6214049,8.45183898 12.8267973,7.76719742 12.8267973,7.15102001 C12.8267973,3.76204424 9.57474989,0.475764706 6.18577412,0.509996781 C6.15154204,0.509996781 5.77498918,0.886549647 5.56959671,1.12617419 C8.30816299,3.83050839 8.06853845,3.38549137 8.06853845,5.06286323 C8.06853845,6.43214635 5.9119175,8.55453523 4.57686643,8.55453523 C2.86526251,8.55453523 3.41297577,8.82839185 0.605945335,6.05559349 C0.400552864,6.26098596 0.024,6.63753882 0.024,6.6717709 C0.0582320791,10.0607467 3.27604745,13.3127942 6.66502323,13.3127942 C7.28120064,13.3127942 7.93161013,13.1074016 8.58201961,12.7993129 L11.0124972,15.1955584 C11.1836576,15.1613263 11.354818,15.1270942 11.5602104,15.1270942 L14.9149541,11.7723507 L14.9149541,11.7723507 Z M25.7665229,17.5575718 L27.5808232,19.3034078 C27.5808232,19.3034078 30.1824612,12.0804393 27.0673419,8.96532017 C25.9719155,7.86989365 24.2945436,6.19252181 22.9937246,4.89170283 C22.719868,4.61784619 21.9325303,4.89170283 21.7271377,4.61784619 C21.1451925,3.86474048 20.9397999,3.21433097 20.9055678,3.0431706 C20.7686396,2.46122526 20.1524621,1.87927992 19.638981,1.36579874 L19.4335885,1.16040627 C19.0228035,0.749621327 18.783179,0.475764706 18.5435544,0.475764706 C18.3039299,0.475764706 18.0643054,0.646925101 17.6535204,1.05771004 L15.1888108,3.55665176 C14.2645446,4.44668582 14.4699371,4.54938204 15.2572749,5.33671985 L15.4626674,5.54211232 C16.0446127,6.08982558 16.6950222,6.80869922 17.3454317,6.80869922 L17.3796638,6.80869922 C17.893145,6.91139546 18.9543394,7.21948416 19.4335885,8.10951821 C19.9813018,9.30764094 19.228196,10.1292108 18.9201073,10.5742278 L12.2790841,17.215251 C12.0394595,17.1467868 11.8340671,17.1125549 11.6286746,17.1125549 C11.2863538,17.1125549 10.944033,17.215251 10.6701764,17.4891078 C10.6359443,17.5575718 10.5674802,17.626036 10.4647839,17.6945001 C10.4647839,17.6945001 4.98765137,23.1716328 3.54990408,24.60938 C3.48143992,24.7120762 3.41297577,24.7805404 3.3445116,24.8147725 C2.00946055,26.1840557 4.4741702,29.0937822 6.25423829,29.0937822 C6.63079113,29.0937822 6.97311192,28.9910861 7.24696856,28.7172294 C7.28120064,28.6487654 7.34966479,28.5803012 7.45236104,28.4776049 C8.89010833,27.0740896 14.3330088,21.5969572 14.3330088,21.5969572 C14.435705,21.4942609 14.5041692,21.4257967 14.5726334,21.3915646 C14.9834183,20.9465476 15.0176504,20.3988344 14.84649,19.7826569 L22.3090831,12.3542959 C22.7541001,11.943511 23.2333493,11.6011902 23.4729737,11.6011902 L23.57567,11.6011902 C26.2800041,13.1758658 25.7665229,17.5575718 25.7665229,17.5575718 L25.7665229,17.5575718 L25.7665229,17.5575718 Z" id="x"></path>
                                            </g>
                                        </g>
                                    </g>
                                </g>
                            </g>
                        </g>
                    </g>
                </g>
            </g>
        </g>
    </g>
</svg>

<svg width="29" height="30" viewBox="0 0 29 30" xmlns="http://www.w3.org/2000/svg"><title>blue/icon-ui-tools-blue</title><path d="M16.866 21.05l4.519 4.518 2.396 3.218 1.267.342 3.56-3.56-.343-1.3-3.217-2.363-4.759-4.758-3.354 3.355c0 .205-.035.376-.069.547zm7.84 2.67c.855 0 1.506.65 1.506 1.506 0 .821-.65 1.472-1.507 1.472-.821 0-1.472-.65-1.472-1.472 0-.856.65-1.507 1.472-1.507zm-9.791-11.948l-2.636-2.67c.342-.65.548-1.335.548-1.951 0-3.389-3.252-6.675-6.641-6.641-.034 0-.411.377-.616.616 2.738 2.705 2.499 2.26 2.499 3.937 0 1.37-2.157 3.492-3.492 3.492-1.712 0-1.164.273-3.971-2.5-.205.206-.582.583-.582.617.034 3.389 3.252 6.64 6.641 6.64.616 0 1.267-.205 1.917-.513l2.43 2.397c.172-.035.343-.069.548-.069l3.355-3.355zm10.852 5.786l1.814 1.745s2.601-7.223-.514-10.338l-4.073-4.073c-.274-.274-1.061 0-1.267-.274-.582-.753-.787-1.404-.821-1.575-.137-.582-.754-1.164-1.267-1.677l-.205-.206c-.411-.41-.65-.684-.89-.684s-.48.17-.89.582l-2.465 2.499c-.924.89-.72.992.068 1.78l.206.205c.582.548 1.232 1.267 1.882 1.267h.035c.513.102 1.574.41 2.054 1.3.547 1.199-.206 2.02-.514 2.465l-6.64 6.641a2.326 2.326 0 0 0-.651-.102c-.343 0-.685.102-.959.376a.581.581 0 0 1-.205.206L3.55 24.609a.581.581 0 0 1-.205.206c-1.336 1.37 1.13 4.279 2.91 4.279.376 0 .718-.103.992-.377.034-.068.103-.137.205-.24 1.438-1.403 6.881-6.88 6.881-6.88.103-.103.171-.171.24-.205.41-.445.445-.993.273-1.61l7.463-7.428c.445-.41.924-.753 1.164-.753h.103c2.704 1.575 2.19 5.957 2.19 5.957z" fill="#1055FF" fill-rule="evenodd"/></svg>
